X:2
T:Mack The Knife
C:Kurt Weill
L:1/4
M:C
I:linebreak $
K:F
"C+" z2 A c |"F6" d2 d2 |"F#o" z2 A c |"Gm" d2 d2 |$"C7" z2 G B |"Gm" d2 d2 |"C7" z2 G B |
"F" d4 |$"F6" z2 c e |"Dm" g2 f2 |"Db7" z2 e d ||[K:Bb]"Cm" f2 G2 |$"F7" z2 A B |"Cm" f2 G2 |
"F7" z2 f e |"Bb" d4 |]

